src/img/icons/more-vertical.svg

<svg width="32" height="32" viewBox="0 0 32 32" fill="none" xmlns="http://www.w3.org/2000/svg">
<path d="M15.9933 27.7777C15.3682 27.7777 14.8352 27.5551 14.3943 27.11C13.9537 26.6649 13.7333 26.1297 13.7333 25.5044C13.7333 24.8792 13.9559 24.3464 14.401 23.9057C14.8463 23.4648 15.3816 23.2444 16.0067 23.2444C16.6318 23.2444 17.1648 23.467 17.6057 23.9124C18.0463 24.3575 18.2667 24.8926 18.2667 25.5177C18.2667 26.143 18.0441 26.676 17.599 27.1167C17.1537 27.5574 16.6184 27.7777 15.9933 27.7777ZM15.9933 18.2667C15.3682 18.2667 14.8352 18.0441 14.3943 17.599C13.9537 17.1537 13.7333 16.6185 13.7333 15.9934C13.7333 15.3682 13.9559 14.8352 14.401 14.3944C14.8463 13.9537 15.3816 13.7334 16.0067 13.7334C16.6318 13.7334 17.1648 13.9559 17.6057 14.401C18.0463 14.8464 18.2667 15.3816 18.2667 16.0067C18.2667 16.6318 18.0441 17.1648 17.599 17.6057C17.1537 18.0464 16.6184 18.2667 15.9933 18.2667ZM15.9933 8.75568C15.3682 8.75568 14.8352 8.53302 14.3943 8.08769C13.9537 7.64257 13.7333 7.10746 13.7333 6.48235C13.7333 5.85702 13.9559 5.32402 14.401 4.88335C14.8463 4.44268 15.3816 4.22235 16.0067 4.22235C16.6318 4.22235 17.1648 4.44491 17.6057 4.89002C18.0463 5.33513 18.2667 5.87035 18.2667 6.49568C18.2667 7.1208 18.0441 7.65369 17.599 8.09435C17.1537 8.53524 16.6184 8.75568 15.9933 8.75568Z" fill="#131212"/>
</svg>

<svg xmlns="http://www.w3.org/2000/svg" viewBox="0 0 32 32">
  <path fill="currentColor" d="M15.993 27.778a2.168 2.168 0 0 1-1.599-.668 2.2 2.2 0 0 1-.66-1.606c0-.625.222-1.158.667-1.598a2.2 2.2 0 0 1 1.606-.662 2.17 2.17 0 0 1 1.599.668c.44.446.66.98.66 1.606 0 .625-.222 1.158-.667 1.599a2.2 2.2 0 0 1-1.606.66Zm0-9.511a2.168 2.168 0 0 1-1.599-.668 2.201 2.201 0 0 1-.66-1.606c0-.625.222-1.158.667-1.599a2.2 2.2 0 0 1 1.606-.66c.625 0 1.158.222 1.599.667.44.445.66.98.66 1.606 0 .625-.222 1.158-.667 1.599a2.2 2.2 0 0 1-1.606.66Zm0-9.511a2.167 2.167 0 0 1-1.599-.668 2.2 2.2 0 0 1-.66-1.606c0-.625.222-1.158.667-1.599.445-.44.98-.66 1.606-.66.625 0 1.158.222 1.599.667.44.445.66.98.66 1.606 0 .625-.222 1.158-.667 1.598a2.2 2.2 0 0 1-1.606.662Z"/>
</svg>
